X: 44
M:C|
L:1/8
K:D
vdB"Segno"|:A2FA B2GB|A2FA GEE2|A2FA Bdce|dABG FAdB|
dAFA d2fa|gfed cee2|dAFA Bdce|dABG FDD2|
dAFA d2fa|gfed cee2|d2cd B2A2|Bdeg fddB"Segno":|


